X:41
T:Duke of Perth, The
R:Reel
S:8 X 32 Reel 1,2,3,4,  2,3,4,1
M:4/4
L:1/4
Q:116
K:G
|: B/| "G" G/A/B/c/ d B | "G" g B d B| "G" g B d B | "Am" a A "D" A B/A/|!
"G" G/A/B/c/ d B | "G" g B d B | "Am" c A "D" d> c | "G" B G G :||!
|:f | "Em" g> a g e | "D" a> b a f | "Em"  g> a g e | "Em" b e e f|!
"Em" g> a  "Am" g e | "D" a> b a f | "C"  g> e "D7"  d c| "G" B G G :||
